X: 1
T: Shottish av \AAker Erland Jonsson
S: Nancy Kalinski (Apr 1999)
O: Sweden
M: 4/4
L: 1/8
K: Gm
|: "Gm"g2ga g2d2 | dedc d2B2 | "D7"A2Ac BAG^F |1,3 " Gm"GABc d^cd^f :|2,4 " Gm"G2G2 G4 :|
|: "Gm"G2GA G^FD2 | B2Bc BAGB | "D7"d2de dcBA |1,3 " Gm"GABA G2D2 :|2,4 " Gm"G2G2 G4 :|
